src/images/messages.svg

<svg width="24" height="22" viewBox="0 0 24 22" fill="none" xmlns="http://www.w3.org/2000/svg">
<path d="M20.4585 0.5H3.54183C1.772 0.5 0.333496 1.93967 0.333496 3.71067V18.2882C0.333496 20.0592 1.772 21.5 3.54183 21.5H20.4585C22.2283 21.5 23.6668 20.0592 23.6668 18.2882V3.71067C23.6668 1.93967 22.2283 0.5 20.4585 0.5ZM3.54183 2.25H20.4585C21.2635 2.25 21.9168 2.90333 21.9168 3.70833V4.54132L12.5252 10.8028C12.2067 11.0128 11.7948 11.0152 11.4752 10.8005L2.0835 4.54132V3.70833C2.0835 2.90333 2.73683 2.25 3.54183 2.25ZM20.4585 19.7477H3.54183C2.73683 19.7477 2.0835 19.0943 2.0835 18.2893V6.59233L10.5302 12.2273C10.977 12.526 11.4892 12.6753 12.0002 12.6753C12.5135 12.6753 13.0233 12.526 13.4702 12.2285L21.9168 6.59349V18.2858C21.9168 19.0908 21.2635 19.7442 20.4585 19.7442V19.7477Z" fill="black"/>
</svg>

<svg width="24" height="22" fill="none" xmlns="http://www.w3.org/2000/svg"><path d="M20.459.5H3.541A3.212 3.212 0 0 0 .333 3.71v14.578A3.213 3.213 0 0 0 3.542 21.5h16.916c1.77 0 3.209-1.44 3.209-3.212V3.711A3.212 3.212 0 0 0 20.458.5ZM3.541 2.25h16.916c.806 0 1.459.653 1.459 1.458v.833l-9.392 6.262a.945.945 0 0 1-1.05-.003L2.083 4.541v-.833c0-.805.654-1.458 1.459-1.458Zm16.916 17.498H3.543a1.459 1.459 0 0 1-1.458-1.459V6.592l8.446 5.635a2.642 2.642 0 0 0 2.94.002l8.447-5.636v11.693c0 .805-.654 1.458-1.459 1.458v.004Z" fill="#000"/></svg>
